packages/core/src/svgs/fakeai.svg

<svg width="24" height="24" viewBox="0 0 24 24" fill="none" xmlns="http://www.w3.org/2000/svg">
<g clip-path="url(#clip0_31_10186)">
<path d="M0 0H24V24H0V0Z" fill="#F0F3FA"/>
<path d="M16.4185 6.24438C17.5027 7.10815 18.3407 8.24175 18.8485 9.53152C19.7443 11.8801 19.2171 14.5587 17.6914 16.5172C17.0325 17.3199 16.2174 17.9803 15.2957 18.4587C13.843 19.2307 12.1652 19.4673 10.5557 19.1272C9.05608 18.7995 7.69476 18.0154 6.65877 16.8827C5.62278 15.75 4.96296 14.3243 4.76997 12.8015C4.75637 12.692 4.74921 12.5818 4.74854 12.4715L4.73568 12.3901C4.71781 12.1662 4.71495 11.9415 4.72711 11.7172L4.73568 11.6315C4.74425 11.6015 4.74854 11.5672 4.74854 11.5329L4.76568 11.2544C4.82997 10.5858 4.97997 9.94723 5.22854 9.34295C5.55098 8.50659 6.03936 7.74415 6.66425 7.10152C7.4035 6.30315 8.30914 5.67696 9.31711 5.26723C10.4788 4.77383 11.7523 4.60415 13.0026 4.77619C14.2529 4.94823 15.4333 5.45557 16.4185 6.24438ZM4.85997 11.0144C4.69711 12.2144 4.81711 13.2772 5.22425 14.4172C5.6029 15.4475 6.20865 16.3792 6.99657 17.1434C7.78448 17.9076 8.73434 18.4846 9.77568 18.8315C10.3784 19.0548 11.0145 19.175 11.6571 19.1872C12.9588 19.2453 14.2519 18.9491 15.3985 18.3301C16.2817 17.8544 17.0589 17.2041 17.6828 16.4187C18.8828 14.8329 19.4443 12.8701 19.14 10.8772C18.8357 8.9058 17.6185 7.14866 15.9943 6.00009C15.314 5.52724 14.5528 5.18299 13.7485 4.98438C12.5152 4.6808 11.2234 4.71009 10.0051 5.06925C8.78678 5.42842 7.68566 6.10459 6.81425 7.02866C6.37282 7.4958 5.95711 8.0058 5.65711 8.57152C5.42568 9.00009 5.23711 9.45866 5.08711 9.94295C4.99282 10.2387 4.91568 10.5944 4.85997 11.0144ZM9.27854 18.4887C7.97151 17.9335 6.85877 17.0027 6.0814 15.8144C5.27828 14.5949 4.87667 13.1549 4.93282 11.6958C4.98425 10.6029 5.26711 9.60009 5.7814 8.64438C6.14564 7.99429 6.60825 7.40446 7.15282 6.8958C7.77112 6.30543 8.49134 5.83206 9.27854 5.49866C10.2771 5.07009 11.3957 4.81295 12.4843 4.91152C13.9628 5.04009 15.3428 5.5758 16.4614 6.53152C17.2671 7.21723 17.91 8.0358 18.3857 8.97866C19.6285 11.4429 19.14 14.4044 17.43 16.5087C16.8006 17.24 16.0368 17.8437 15.18 18.2872C14.1077 18.8358 12.912 19.0986 11.7085 19.0501L11.58 19.0372C10.7851 19.0013 10.0042 18.8151 9.27854 18.4887ZM17.6271 11.0572C17.2328 8.37866 15.3814 6.59152 12.7243 6.18009C11.9119 6.07415 11.086 6.15776 10.3114 6.42438C9.10506 6.77421 8.04792 7.51242 7.30401 8.52445C6.56009 9.53648 6.171 10.7658 6.19711 12.0215C6.217 12.9302 6.45804 13.8203 6.89937 14.6149C7.34071 15.4094 7.96904 16.0845 8.72997 16.5815C9.77511 17.2295 10.9847 17.5627 12.2143 17.5415C12.6319 17.5428 13.0471 17.4777 13.4443 17.3487C14.1428 17.1258 14.7943 16.8344 15.3728 16.3801C16.1925 15.7775 16.8344 14.9651 17.2312 14.0283C17.6279 13.0916 17.7647 12.0652 17.6271 11.0572ZM7.14854 14.5501C7.83425 15.7329 9.03854 16.6929 10.4228 17.0529C10.9337 17.1938 11.458 17.28 11.9871 17.3101C11.9918 17.3055 11.9948 17.2994 11.9957 17.2929V16.2858L12 13.8729C12 13.5944 12.3428 13.3372 12.5785 13.1572L12.6643 13.0929C12.7928 12.9944 12.8357 12.9558 12.8614 12.8444C12.8614 12.8444 12.8528 12.5015 12.8571 12.2272V10.9415C12.8357 10.8344 12.6685 10.7487 12.5314 10.6758C12.4875 10.655 12.4446 10.6321 12.4028 10.6072C12.2871 10.5301 12 10.2858 12 10.1144V6.5358C12 6.50152 11.9914 6.47152 11.9828 6.45009L11.9743 6.42438C11.97 6.39438 11.9528 6.38152 11.9228 6.38152C11.3185 6.39438 10.7228 6.5658 10.1614 6.75438C9.15425 7.09723 8.37854 7.65438 7.67568 8.44723C7.1014 9.09009 6.75854 9.99009 6.56568 10.8129C6.35568 11.7044 6.41997 12.6815 6.71568 13.5687C6.83568 13.9415 6.9814 14.2672 7.14425 14.5544L7.14854 14.5501Z" fill="black"/>
</g>
<defs>
<clipPath id="clip0_31_10186">
<rect width="24" height="24" fill="white"/>
</clipPath>
</defs>
</svg>

<svg xmlns="http://www.w3.org/2000/svg" width="24" height="24" fill="none" viewBox="0 0 24 24"><g clip-path="url(#a)"><path fill="#F0F3FA" d="M0 0h24v24H0z"/><path fill="#000" d="M16.419 6.244a7.9 7.9 0 0 1 2.43 3.288c.895 2.348.368 5.027-1.158 6.985a7.7 7.7 0 0 1-2.395 1.942 7 7 0 0 1-4.74.668 7.43 7.43 0 0 1-5.786-6.325q-.02-.165-.021-.33l-.013-.082a5 5 0 0 1-.009-.673l.009-.085a.4.4 0 0 0 .013-.1l.017-.278a6.7 6.7 0 0 1 .463-1.911 6.6 6.6 0 0 1 1.435-2.241 7.4 7.4 0 0 1 2.653-1.835 6.99 6.99 0 0 1 7.102.977M4.86 11.014c-.163 1.2-.043 2.263.364 3.403a7.31 7.31 0 0 0 4.552 4.414 5.7 5.7 0 0 0 1.881.356 7.2 7.2 0 0 0 3.742-.857 7.4 7.4 0 0 0 2.284-1.911c1.2-1.586 1.761-3.549 1.457-5.542C18.836 8.906 17.619 7.15 15.994 6a6.8 6.8 0 0 0-2.245-1.016A7.17 7.17 0 0 0 6.814 7.03c-.441.467-.857.977-1.157 1.543a7.6 7.6 0 0 0-.57 1.371 6.3 6.3 0 0 0-.227 1.071m4.419 7.475a7.17 7.17 0 0 1-3.198-2.675 7 7 0 0 1-1.148-4.118 7 7 0 0 1 .848-3.052c.365-.65.827-1.24 1.372-1.748a7.1 7.1 0 0 1 2.126-1.397c.998-.429 2.117-.686 3.205-.587 1.479.128 2.859.664 3.977 1.62a7.8 7.8 0 0 1 1.925 2.447c1.242 2.464.754 5.425-.956 7.53a7.5 7.5 0 0 1-2.25 1.778 7 7 0 0 1-3.471.763l-.129-.013a6.3 6.3 0 0 1-2.301-.548m8.348-7.432c-.394-2.678-2.246-4.465-4.903-4.877a5.3 5.3 0 0 0-2.413.244 5.704 5.704 0 0 0-4.114 5.597 5.6 5.6 0 0 0 2.533 4.56 6.4 6.4 0 0 0 3.484.96c.418.002.833-.063 1.23-.192.699-.223 1.35-.515 1.929-.969a5.66 5.66 0 0 0 2.254-5.323M7.15 14.55c.685 1.183 1.89 2.143 3.274 2.503.51.14 1.035.227 1.564.257a.03.03 0 0 0 .009-.017v-1.007L12 13.873c0-.279.343-.536.579-.716l.085-.064c.129-.099.172-.137.197-.249 0 0-.008-.342-.004-.617v-1.286c-.021-.107-.188-.192-.326-.265a2 2 0 0 1-.128-.069c-.116-.077-.403-.321-.403-.493V6.536a.2.2 0 0 0-.017-.086l-.009-.026q-.006-.043-.051-.042c-.604.012-1.2.184-1.762.372-1.007.343-1.782.9-2.485 1.693-.575.643-.917 1.543-1.11 2.366-.21.891-.146 1.868.15 2.756q.182.556.428.985z"/></g><defs><clipPath id="a"><path fill="#fff" d="M0 0h24v24H0z"/></clipPath></defs></svg>
